X: 42787
T: Whitecross
R: reel
M: 4/4
K: Gmajor
|:B,C|DGG2 G,A,B,C|DEFD G2GA|BGdG Bcde|=fdBd A=FF2|
GABc de=fd|g^fdB c2 Bc|dgg2 dcBd|1 cA=FA G2:|2 cA=FA G2||
K:Gm
|:GA|B2 df =egcA|B2 dB AcFA|B2 df =egcA|BdcA BGGA|B2 FB DBFB|
DBFB AFF2|1 GABc d2 cA|BdcA BG:|2 GABc dBcA|BdcA BGG2||

